X: 1
T:Scottish du Stockfish 2
C:Daniel Thonon
M:4/4
L:1/8
K:Em
"Em"B2E2 E2EG|"D"F2D2 "Em"E4| EFGA "G"B2Bd|"A"A2GA "B"B2B2|
"Em"B2E2 E2EG|"D"FED2 "Em"E4| EFGA "G"B2AG|"D"F2D2 "Em"E4:|
|:"Em"E2E2 EG3 |"C"E2E2 EG3| "D"F2F2 A2F2 |"G"GABG "D"A4|
  "Em"E2E2 EG3 |"C"E2E2 EG3| "D"F2F2 A2F2 |G2F2 "Em"E4:|

%%newpage
%% header "Pizza Wizards - Rose Tree / Britches Full Of Stitches		$P"

